src/assets/selectIcons/materiale_11.svg

<svg xmlns="http://www.w3.org/2000/svg" viewBox="0 0 512 512" style="height: 512px; width: 512px;"><path d="M0 0h512v512H0z" fill="#000" fill-opacity="1"></path><g class="" transform="translate(0,0)" style=""><path d="M169.57 106.12c-1.882-14.48-28.184-30.424-41.092-30.424-2.54 0-4.56.612-5.773 1.974-21.81 24.385 14.225 81.262 14.225 81.262s35.746-28.785 32.64-52.812zm128.832 60.524s34.315-54.186 13.544-77.36c-1.155-1.292-3.083-1.88-5.496-1.88-12.308 0-37.352 15.183-39.142 28.98-2.967 22.78 31.094 50.26 31.094 50.26zm-53.724-50.352c-1.79-13.798-26.845-28.98-39.14-28.98-2.414 0-4.343.588-5.497 1.88-20.782 23.22 13.544 77.36 13.544 77.36s34.06-27.387 31.094-50.26zM58.128 58.896a16.546 16.546 0 0 0-1.664.08c-87.75 8.937 11.373 286.056 40.55 304.484 0 0-16.984-151.636 2.795-244.236 7.238-34.107-24.006-60.328-41.683-60.328zm397.394.08a16.465 16.465 0 0 0-1.663-.08c-17.678 0-48.968 26.198-41.682 60.328 19.778 92.6 2.794 244.236 2.794 244.236 29.223-18.416 128.312-295.535 40.55-304.483zm-72.013 16.72c-12.92 0-39.258 15.945-41.094 30.424-3.106 23.97 32.652 52.823 32.652 52.823s36.024-56.888 14.225-81.26c-1.224-1.375-3.244-1.987-5.784-1.987zm-148.3 348.98c-2.032-11.37-25.598-35.353-25.598-35.353s-20.54 23.97-20.32 33.727c0 2.147-1.155 23.092 2.03 26 2.876 2.645 12.84 4.043 22.62 4.043 9.468 0 18.75-1.305 21.268-4.042 2.31-2.47.335-22.733 0-24.373zm-60.04-24.35c-12.065-20.69-19.155-51.01-23.092-73.733-3.094-17.966-4.19-31.174-4.19-31.174-15.127 11.81-44.292 137.675 2.54 137.675a30.02 30.02 0 0 0 4.952-.428c4.62-.762 10.46-4.295 15.01-9.236 5.935-6.43 9.456-15.17 4.78-23.103zm188.85-104.93s-1.006 12.03-3.777 28.738c-3.81 22.965-10.98 54.74-23.485 76.204-3.764 6.466-2.136 13.417 1.744 19.236 4.618 6.86 12.308 12.135 18.035 13.082a30.124 30.124 0 0 0 4.953.427c46.912-.046 17.677-125.91 2.563-137.734zm-41.406 127.7c.22-9.757-20.32-33.726-20.32-33.726s-23.532 23.935-25.518 35.307c-.254 1.444-2.563 21.592 0 24.386 2.564 2.794 11.812 4.04 21.268 4.04 9.78 0 19.744-1.396 22.62-4.04 4.387-4.088 1.962-25.286 1.985-26.002zm-143.726 5.496l.243.115v-.44z" fill="#fff" fill-opacity="1"></path></g></svg>

<?xml version="1.0" encoding="UTF-8" standalone="no"?>
<!DOCTYPE svg PUBLIC "-//W3C//DTD SVG 1.1//EN" "http://www.w3.org/Graphics/SVG/1.1/DTD/svg11.dtd">
<svg width="100%" height="100%" viewBox="0 0 512 512" version="1.1" xmlns="http://www.w3.org/2000/svg" xmlns:xlink="http://www.w3.org/1999/xlink" xml:space="preserve" xmlns:serif="http://www.serif.com/" style="fill-rule:evenodd;clip-rule:evenodd;stroke-linejoin:round;stroke-miterlimit:2;">
    <rect x="0" y="0" width="512" height="512" style="fill-rule:nonzero;"/>
    <g>
        <path d="M169.57,106.12C167.688,91.64 141.386,75.696 128.478,75.696C125.938,75.696 123.918,76.308 122.705,77.67C100.895,102.055 136.93,158.932 136.93,158.932C136.93,158.932 172.676,130.147 169.57,106.12ZM298.402,166.644C298.402,166.644 332.717,112.458 311.946,89.284C310.791,87.992 308.863,87.404 306.45,87.404C294.142,87.404 269.098,102.587 267.308,116.384C264.341,139.164 298.402,166.644 298.402,166.644ZM244.678,116.292C242.888,102.494 217.833,87.312 205.538,87.312C203.124,87.312 201.195,87.9 200.041,89.192C179.259,112.412 213.585,166.552 213.585,166.552C213.585,166.552 247.645,139.165 244.679,116.292L244.678,116.292ZM58.128,58.896C57.572,58.895 57.017,58.921 56.464,58.976C-31.286,67.913 67.837,345.032 97.014,363.46C97.014,363.46 80.03,211.824 99.809,119.224C107.047,85.117 75.803,58.896 58.126,58.896L58.128,58.896ZM455.522,58.976C454.969,58.921 454.414,58.895 453.859,58.896C436.181,58.896 404.891,85.094 412.177,119.224C431.955,211.824 414.971,363.46 414.971,363.46C444.194,345.044 543.283,67.925 455.521,58.977L455.522,58.976ZM383.509,75.696C370.589,75.696 344.251,91.641 342.415,106.12C339.309,130.09 375.067,158.943 375.067,158.943C375.067,158.943 411.091,102.055 389.292,77.683C388.068,76.308 386.048,75.696 383.508,75.696L383.509,75.696ZM235.209,424.676C233.177,413.306 209.611,389.323 209.611,389.323C209.611,389.323 189.071,413.293 189.291,423.05C189.291,425.197 188.136,446.142 191.321,449.05C194.197,451.695 204.161,453.093 213.941,453.093C223.409,453.093 232.691,451.788 235.209,449.051C237.519,446.581 235.544,426.318 235.209,424.678L235.209,424.676ZM175.169,400.326C163.104,379.636 156.014,349.316 152.077,326.593C148.983,308.627 147.887,295.419 147.887,295.419C132.76,307.229 103.595,433.094 150.427,433.094C152.087,433.088 153.743,432.945 155.379,432.666C159.999,431.904 165.839,428.371 170.389,423.43C176.324,417 179.845,408.26 175.169,400.327L175.169,400.326ZM364.019,295.396C364.019,295.396 363.013,307.426 360.242,324.134C356.432,347.099 349.262,378.874 336.757,400.338C332.993,406.804 334.621,413.755 338.501,419.574C343.119,426.434 350.809,431.709 356.536,432.656C358.172,432.935 359.829,433.077 361.489,433.083C408.401,433.037 379.166,307.173 364.052,295.349L364.019,295.396ZM322.613,423.096C322.833,413.339 302.293,389.37 302.293,389.37C302.293,389.37 278.761,413.305 276.775,424.677C276.521,426.121 274.212,446.269 276.775,449.063C279.339,451.857 288.587,453.103 298.043,453.103C307.823,453.103 317.787,451.707 320.663,449.063C325.05,444.975 322.625,423.777 322.648,423.061L322.613,423.096ZM178.887,428.592L179.13,428.707L179.13,428.267L178.887,428.592Z" style="fill:rgb(202,176,136);fill-rule:nonzero;"/>
    </g>
</svg>
